www/assets/icons/explore.svg

<svg xmlns="http://www.w3.org/2000/svg" width="24" height="24" viewBox="0 0 24 24" fill='currentColor'><path d="M12 10.9c-.61 0-1.1.49-1.1 1.1s.49 1.1 1.1 1.1 1.1-.49 1.1-1.1-.49-1.1-1.1-1.1M12 2C6.48 2 2 6.48 2 12s4.48 10 10 10 10-4.48 10-10S17.52 2 12 2m2.19 12.19L6 18l3.81-8.19L18 6z"/></svg>

<svg width="24" height="24" viewBox="0 0 24 24" xmlns="http://www.w3.org/2000/svg" fill='currentColor'><path d="M12 10.9C11.39 10.9 10.9 11.39 10.9 12C10.9 12.61 11.39 13.1 12 13.1C12.61 13.1 13.1 12.61 13.1 12C13.1 11.39 12.61 10.9 12 10.9ZM12 2C6.48 2 2 6.48 2 12C2 17.52 6.48 22 12 22C17.52 22 22 17.52 22 12C22 6.48 17.52 2 12 2ZM14.19 14.19L6 18L9.81 9.81L18 6L14.19 14.19Z"/></svg>
